X: 33747
T: Rattlin' And Rollin'
R: slip jig
M: 9/8
K: Dminor
C|:D2D FDF GFE|FED C2C D2A,|D2D FDF GFG|DAD d2c A2C|
D2D FDF GFE|FED C2C D2A|d2d cdc AcA|GAG FGF EDC:|
|:D2D c2d DAD|d2c dcd f2e|D2D c2d cdc|A2A cAG AGF|
D2D c2d DAD|d2c dcd f2e|d2d cdc AcA|GAG FGF EDC:|

